X: 29
T: Piano Sonata No. 6 in D major, K 284 (205b), mvmt. 3l
C: Wolfgang Amadeus Mozart
%%abc-version 2.0
%%abcx-abcm2ps-target-version 5.9.1 (29 Sep 2008)
%%abc-creator hum2abc beta
%%abcx-conversion-date 2021/01/14 17:01:32
%%abc-copyright 2018 Craig Stuart Sapp
%%abc-edited-by Craig Stuart Sapp
%%abc-edited-by Craig Stuart Sapp
%%abcx-initial-encoding-date 2009/09/22
%%gracespace 0 6 6
%%humdrum-veritas 1074156028
%%humdrum-veritas-data 2582600983
%%linebreak <none>
%%barnumbers 0
L: 1/16
M: C
N: Derived from sonata06-3l.krn
Q: "Variation 11: Adagio cantabile" 1/4=60
%%staves {1 2}
V: 1 clef=treble
V: 2 clef=bass
K: D
[V:1] a2g2f2e2 [I:setbarnb 1]| 
[V:2] z8[K:clef=treble] | 
[V:1] e2<d2d4>{/edc} d4e2f2 | 
[V:2] DFAF DFAF B,DFD B,DFD | 
[V:1] e2g4e2 d2c2B2A2 | 
[V:2] G,B,EB, G,B,EB, A,EGE A,EGE | 
[V:1] A2a2f2.d2 B2d'2 c'bag | 
[V:2] DFAF[K:clef=bass] F,A,DA, G,B,DB, G,B,EB, | 
[V:1] f2>a2e4>f4g2^g2 | 
[V:2] A,DFD A,CECA,4z4 | 
[V:1] a4=gfedd4d4 | 
[V:2] F,A,DA, F,A,DA, =F,A,DA, F,A,DA, | 
[V:1] d'4>>b4 .^g2 z2 .d2 z2 | 
[V:2] E,^G,B,G, E,G,B,G, E,G,B,G, G,B,EB, | 
[V:1] cd^de ^ef^ga c=d^d=e e=dcB | 
[V:2] A,4D,4[E,4A,4][E,4^G,4] | 
[V:1] [D4B4][C4A4]x8 & E8^gaba a=gfe | 
[V:2] [A,,8A,8]z8[K:clef=treble] | 
[V:1] e2d2d4-dc'd'c' d'bd'f | 
[V:2] DFAF DFAF B,DFD B,DFD | 
[V:1] e2>^d2 efge =d2c2!trill!B2A2 | 
[V:2] G,B,EB, G,B,EB, A,EGE A,EGE | 
[V:1] A2<a2 !mordent!g<f!mordent!e<d B//d//c//B//c//d//e//f//g//a//b//c'//d'//c'//d'//c'// e'/d'/c'/b/ c'/b/a/g/ | 
[V:2] DFAF[K:clef=bass] F,A,DA, G,B,DB, G,B,EB, | 
[V:1] !turn!f2>g2 ^gae2- ee^de =f^f=g^g | 
[V:2] A,DFD A,CECA,4z4 | 
[V:1] a4=gfed!trill!d4-d//e//d//c//d//_e//=e//=f//^f//g//^g//a//_b//=b//=c'//^c'// | 
[V:2] F,A,DA, F,A,DA, =F,A,DA, F,A,DA, | 
[V:1] !trill!d'3c'/d'/ !trill!b3^a/b/ !trill!^g3f/g/ !trill!d3c/d/ | 
[V:2] E,^G,B,G, E,G,B,G, E,G,B,G, G,B,EB, | 
[V:1] c/d/c/d/ ^d/e/d/e/ ^e/f/e/f/ ^g/a/g/a/ c=d^d=e e=dcB | 
[V:2] A,4D,4[E,4A,4][E,4^G,4] | 
[V:1] [D4B4][C4A4]x8 & E8a2b2=c'2e2 | 
[V:2] [A,,8E,8A,8]z8[K:clef=treble] | 
[V:1] ^d4e2 z> bc4=d2 z3/ a/ | 
[V:2] [A4=c4][^G2B2] z2[=G4_B4][F2A2] z2 | 
[V:1] d'd'2c'2b2^a2b2=a2g2f | 
[V:2] d4d4d4d4 & =B2A2G2F2 G2F2E2D2 | 
[V:1] a2g2 z2 .f2 ^d2e2 z2 .=d2 | 
[V:2] CEAE DFAF CEAE B,E^GE | 
[V:1] dcfee4-e^efc d^AB^G | 
[V:2] [A,4E4A4]z4z8 | 
[V:1] B=AAA A2a2- a2a=g gffe | 
[V:2] z16 | 
[V:1] e2d4<d4{/e/d/c/} d2e2f2 | 
[V:2] DFAF DFAF B,DFD B,DFD | 
[V:1] e2b4g>e c2g4e3/G/ | 
[V:2] G,B,EB, G,B,EB, A,EGE A,CEC | 
[V:1] [Ff][Gg][^G^g][Aa] [^A^a][Bb][cc'][dd']!trill!e8{/d/e/} | 
[V:2] D4z4[K:clef=bass]A,DED A,CEC | 
[V:1] [=G4e4][F4d4]x8 & A8a^gab =c'fae | 
[V:2] [D,8D8]z8[K:clef=treble] | 
[V:1] ^d3e/f/ e/=f/^f/g/ ^g/a/^a//b//g//e// ^c3=d/e/ d/f/e/d/e/f/=g//=a//b//c'// | 
[V:2] [A4=c4][^G2B2] z2[=G4_B4][F2A2] z2 | 
[V:1] d'{/e'//}d'2c'2{/c'//}b2^a2{/c'//}b2=a2{/a//}g2f | 
[V:2] =BdAd GdFd GdFd EdDd | 
[V:1] a3/b//a//g2 z2 .f2 ^d2e2- (3:2:12e/f/^g/!beambr1!a/b/c'/ =d'/b/g/!beambr1!e/f/=d/ | 
[V:2] CEAE DFAF CEAE B,D^GD | 
[V:1] dcfe e2E2- E^EFC D^A,B,^G, | 
[V:2] [A,4E4A4]z4z8[K:clef=bass] | 
[V:1] B,=A,.A,.A,A,4{/A,/8B,/8C/8D/8E/8F/8^G/8A/8B/8c/8d/8e/8f/8^g/8a/8b/8c'/8d'/8} e'd'!trill!c'b !trill!a=g!trill!fe | 
[V:2] [A,,4C,4][A,,4C,4][A,4C4][A,4C4][K:clef=treble] | 
[V:1] edd4d2- d!trill!c'd'!trill!c' d'!trill!bd'f | 
[V:2] DFAF DFAF B,DFD B,DFD | 
[V:1] {/e//g//}b4-b2-b/>a/g//f//e//d// {/c//e//}g4-g2-g/>f/e//d//c/8B/8A/8G/8 | 
[V:2] G,B,EB, G,B,EB, A,CEC A,CEC | 
[V:1] F/f/G/g/^G/^g/A/a/ ^A/^a/B/b/c/c'/d/d'/ {/d/e/f/}!trill!e8{/d/e/} | 
[V:2] D4z4[K:clef=bass]A,DED A,CEC | 
[V:1] [=G4e4][F4d4] & A8 ||  
[V:2] [D,8A,8D8] ||  


